docker.svg

<?xml version="1.0" encoding="UTF-8"?>
<svg id="Layer_1" data-name="Layer 1" xmlns="http://www.w3.org/2000/svg" viewBox="0 0 756.26 596.9">
  <defs>
    <style>
      .cls-1 {
        fill: #fff;
        stroke-width: 0px;
      }
    </style>
  </defs>
  <path class="cls-1" d="M743.96,245.25c-18.54-12.48-67.26-17.81-102.68-8.27-1.91-35.28-20.1-65.01-53.38-90.95l-12.32-8.27-8.21,12.4c-16.14,24.5-22.94,57.14-20.53,86.81,1.9,18.28,8.26,38.83,20.53,53.74-46.1,26.74-88.59,20.67-276.77,20.67H.06c-.85,42.49,5.98,124.23,57.96,190.77,5.74,7.35,12.04,14.46,18.87,21.31,42.26,42.32,106.11,73.35,201.59,73.44,145.66.13,270.46-78.6,346.37-268.97,24.98.41,90.92,4.48,123.19-57.88.79-1.05,8.21-16.54,8.21-16.54l-12.3-8.27ZM189.67,206.39h-81.7v81.7h81.7v-81.7ZM295.22,206.39h-81.7v81.7h81.7v-81.7ZM400.77,206.39h-81.7v81.7h81.7v-81.7ZM506.32,206.39h-81.7v81.7h81.7v-81.7ZM84.12,206.39H2.42v81.7h81.7v-81.7ZM189.67,103.2h-81.7v81.7h81.7v-81.7ZM295.22,103.2h-81.7v81.7h81.7v-81.7ZM400.77,103.2h-81.7v81.7h81.7v-81.7ZM400.77,0h-81.7v81.7h81.7V0Z"/>
</svg>

<svg width="757" height="597" viewBox="0 0 757 597" fill="none" xmlns="http://www.w3.org/2000/svg">
<g clip-path="url(#clip0_24_2)">
<path d="M743.96 245.25C725.42 232.77 676.7 227.44 641.28 236.98C639.37 201.7 621.18 171.97 587.9 146.03L575.58 137.76L567.37 150.16C551.23 174.66 544.43 207.3 546.84 236.97C548.74 255.25 555.1 275.8 567.37 290.71C521.27 317.45 478.78 311.38 290.6 311.38H0.0600085C-0.789992 353.87 6.04001 435.61 58.02 502.15C63.76 509.5 70.06 516.61 76.89 523.46C119.15 565.78 183 596.81 278.48 596.9C424.14 597.03 548.94 518.3 624.85 327.93C649.83 328.34 715.77 332.41 748.04 270.05C748.83 269 756.25 253.51 756.25 253.51L743.95 245.24L743.96 245.25ZM189.67 206.39H107.97V288.09H189.67V206.39ZM295.22 206.39H213.52V288.09H295.22V206.39ZM400.77 206.39H319.07V288.09H400.77V206.39ZM506.32 206.39H424.62V288.09H506.32V206.39ZM84.12 206.39H2.42001V288.09H84.12V206.39ZM189.67 103.2H107.97V184.9H189.67V103.2ZM295.22 103.2H213.52V184.9H295.22V103.2ZM400.77 103.2H319.07V184.9H400.77V103.2ZM400.77 0H319.07V81.7H400.77V0Z" fill="white"/>
</g>
<defs>
<clipPath id="clip0_24_2">
<rect width="756.26" height="596.9" fill="white"/>
</clipPath>
</defs>
</svg>
